X:361
T:B361-  The Oxfordhire Tragedy
Q:1/4=120
L:1/4
M:3/2
K:D
dcB|d3FGE|D3ecB|e2A2(^G/A/)B|\
A3Ade|f2e2dD|A3FGA|B2A2(G/F/) (E/D/)|D3|]

